X: 842
T: Reel of Tulloch
R: reel
B: Robert Bremner "A Collection of Scots Reels or Country Dances" 1757 p.84 #2
S: http://imslp.org/wiki/A_Collection_of_Scots_Reels_or_Country_Dances_(Bremner,_Robert)
Z: 2013 John Chambers <jc:trillian.mit.edu>
M: C
L: 1/8
K: Amix
% - - - - - - - - - - - - - - - - - - - - - - - - -
V: 1
f |\
Te2 Ac/d/ ecAa | Te2 A/B/c dBGf |\
Te2 Ac/d/ eATcA | BE E/E/E dBG :|
|: B |\
TcA c/d/e cAAB | TcA (c/d/e) dBGB |\
cA (c/d/e) TcATcA | BE E/E/E dBG :|
% - - - - - - - - - - - - - - - - - - - - - - - - -
V: 2 clef=bass middle=d
z |\
a2a2 a2a2 | a2a2 g2g2 |\
a2a2 a2a2 | e2e2 g2g :|\
|: z |
a2a2 a2a2 | a2a2 g2g2 |\
a2a2 a2a2 | e2e2 g2g :|
% - - - - - - - - - - - - - - - - - - - - - - - - -

%%sep 1 1 500
%%sep 1 1 500
